X:1
T:Cello Suite #1 - 1 Prelude
C:J.S. Bach
N:TablEdited by Jack Roberts
L:1/8
Q:1/4=69
M:4/4
K:D
d/"= 69"a/f'/e'/ f'/a/f'/a/ d/a/f'/e'/ f'/a/f'/a/ | d/b/g'/f'/ g'/b/g'/b/ d/b/g'/f'/ g'/b/g'/b/ | 
d/c'/g'/f'/ g'/c'/g'/c'/ d/c'/g'/f'/ g'/c'/g'/c'/ | d/d'/f'/e'/ f'/d'/f'/d'/ d/d'/f'/e'/ f'/d'/f'/c'/ | 
d/b/f'/e'/ f'/d'/c'/d'/ b/d'/c'/d'/ f/a/^g/f/ | ^g/d'/e'/d'/ e'/d'/e'/d'/ g/d'/e'/d'/ e'/d'/e'/d'/ | 
c'/e'/a'/^g'/ a'/e'/d'/e'/ c'/e'/d'/e'/ a/c'/b/a/ | B/f/d'/c'/ d'/f/d'/f/ B/f/d'/c'/ d'/f/d'/f/ | 
B/^g/a/b/ a/g/f/e/ d'/c'/b/a'/ ^g'/f'/e'/d'/ | c'/b/a/a'/ e'/a'/c'/e'/ a/b/c'/e'/ d'/c'/b/a/ | 
^d'/a/=c'/b/ c'/a/d'/a/ f'/a/c'/b/ c'/a/d'/a/ | g/b/e'/f'/ g'/e'/b/a/ g/b/e'/f'/ g'/e'/c'/b/ | 
^a/c'/a/c'/ e'/c'/e'/c'/ a/c'/a/c'/ e'/c'/e'/c'/ | d'/c'/b/d'/ c'/d'/e'/c'/ d'/c'/b/a/ g/f/e/d/ | 
c/g/a/g/ a/g/a/g/ c/g/a/g/ a/g/a/g/ | d/f/=c'/b/ c'/f/c'/f/ d/f/c'/b/ c'/f/c'/f/ | 
d/g/b/a/ b/g/b/g/ d/g/b/a/ b/g/b/g/ | d/c'/g'/f'/ g'/c'/g'/c'/ d/c'/g'/f'/ g'/c'/g'/c'/ | 
d/a/f'/e'/ f'/d'/c'/b/ a/g/f/e/ d/c/B/A/ | ^G/e/b/c'/ d'/b/c'/d'/ G/e/b/c'/ d'/b/c'/d'/ | 
G/e/a/b/ c'/a/b/c'/ G/e/a/b/ c'/a/b/c'/ | G/e/a/c'/ e'/^g'/a' z/e/f/g/ a/b/c'/d'/ | 
e'/c'/a/b/ c'/d'/e'/f'/ g'/e'/c'/d'/ e'/f'/g'/a'/ | _b'/a'/^g'/a'/ a'/=g'/f'/g'/ g'/e'/c'/b/ a/e/f/g/ | 
A/e/a/c'/ e'/f'/g'/e'/ f'/d'/a/g/ f/d/e/f/ | A/d/f/a/ d'/e'/f'/d'/ ^g'/=f'/e'/f'/ f'/e'/^d'/e'/ | 
e'/d'/c'/d'/ d'/b/^g/f/ e/g/b/d'/ e'/^g'/a'/g'/ | a'/e'/c'/b/ c'/e'/a/c'/ e/a/^g/f/ e/d/c/B/ | 
Ag'/f'/ e'/d'/c'/b/ a/g'/f'/e'/ d'/c'/b/a/ | g/f'/e'/d'/ c'/b/a/g/ f/e'/d'/c'/ b/a/g/f/ | 
e/d'/c'/b/ c'/e'/a/e'/ b/e'/c'/e'/ d'/e'/b/e'/ | c'/e'/a/e'/ d'/e'/b/e'/ c'/e'/a/e'/ d'/e'/b/e'/ | 
c'/e'/a/e'/ b/e'/c'/e'/ d'/e'/e'/e'/ f'/e'/a/e'/ | e'/e'/f'/e'/ g'/e'/a/e'/ f'/e'/g'/e'/ a'/e'/f'/e'/ | 
g'/e'/f'/e'/ g'/e'/e'/e'/ f'/e'/e'/e'/ f'/e'/d'/e'/ | e'/e'/d'/e'/ e'/e'/c'/e'/ d'/e'/c'/e'/ d'/e'/b/e'/ | 
c'/e'/a/b/ =c'/a/^c'/a/ d'/a/^d'/a/ e'/a/=f'/a/ | f'/a/g'/a/ ^g'/a/a'/a/ ^a'/a/b'/a/ =c''/a/^c''/a/ | 
d''/f'/a/f'/ d''/f'/d''/f'/ d''/f'/a/f'/ d''/f'/d''/f'/ | d''/e'/a/e'/ d''/e'/d''/e'/ d''/e'/a/e'/ d''/e'/d''/e'/ | 
c''/g'/a/g'/ c''/g'/c''/g'/ c''/g'/a/g'/ c''/g'/c''/g'/ | [d''8f'8d8d8] | 
 

